src/assets/chainlink_footer.svg

<svg width="85" height="28" viewBox="0 0 85 28" fill="none" xmlns="http://www.w3.org/2000/svg">
<g clip-path="url(#clip0)">
<path d="M29.1813 13.5747C29.1587 12.953 29.2622 12.3332 29.4854 11.7524C29.7086 11.1717 30.047 10.642 30.4803 10.1951C30.9136 9.74831 31.4329 9.39358 32.0068 9.15225C32.5808 8.91093 33.1977 8.78799 33.8204 8.79082C36.1669 8.79082 37.5556 10.1662 37.9746 11.7808L36.5021 12.2771C36.3725 11.6751 36.0301 11.14 35.5375 10.7698C35.0449 10.3997 34.4353 10.2193 33.8204 10.2619C32.3 10.2619 30.7796 11.3682 30.7796 13.6046C30.7796 15.8411 32.2641 16.9056 33.8384 16.9056C34.4567 16.9235 35.063 16.7334 35.5602 16.3658C36.0574 15.9982 36.4165 15.4743 36.5799 14.8784L38.0106 15.3448C37.7656 16.2547 37.2164 17.0534 36.4541 17.6082C35.6918 18.1631 34.7624 18.4405 33.8204 18.3946C33.1921 18.4063 32.5681 18.2883 31.9876 18.0477C31.4071 17.8072 30.8826 17.4495 30.447 16.997C30.0115 16.5444 29.6742 16.0068 29.4564 15.4179C29.2386 14.829 29.1449 14.2015 29.1813 13.5747Z" fill="white"/>
<path d="M40.8479 18.1733H39.3394V8.76691H40.8479V12.4565C41.0676 12.197 41.3433 11.9906 41.6543 11.8528C41.9654 11.7151 42.3036 11.6495 42.6437 11.6612C44.206 11.6612 44.9602 12.7794 44.9602 14.1727V18.1733H43.4937V14.4299C43.5212 14.2478 43.5072 14.0618 43.4529 13.8859C43.3986 13.7099 43.3053 13.5484 43.1799 13.4134C43.0545 13.2783 42.9003 13.1733 42.7287 13.106C42.5571 13.0387 42.3726 13.0109 42.1887 13.0246C42.0063 13.0248 41.8259 13.0628 41.6589 13.1362C41.492 13.2097 41.3421 13.317 41.2189 13.4514C41.0956 13.5858 41.0017 13.7443 40.943 13.9168C40.8842 14.0894 40.8621 14.2722 40.8778 14.4538L40.8479 18.1733Z" fill="white"/>
<path d="M48.3303 14.5495L49.9525 14.2983C50.3176 14.2505 50.4194 14.0651 50.4194 13.8439C50.4194 13.3116 50.0602 12.8811 49.2222 12.8811C49.0606 12.8672 48.8978 12.8863 48.7438 12.9371C48.5899 12.988 48.4478 13.0696 48.3263 13.177C48.2049 13.2843 48.1065 13.4153 48.0372 13.5618C47.9679 13.7083 47.9291 13.8673 47.9232 14.0292L46.5465 13.7183C46.6602 12.624 47.6539 11.6492 49.2102 11.6492C51.1616 11.6492 51.9039 12.7555 51.9039 14.0412V17.1806C51.9004 17.5211 51.9265 17.8612 51.9817 18.1972H50.575C50.5267 17.931 50.5067 17.6604 50.5152 17.3899C50.305 17.7117 50.0145 17.9731 49.6722 18.1482C49.33 18.3234 48.9479 18.4062 48.5637 18.3886C48.2959 18.4106 48.0264 18.3781 47.7715 18.2931C47.5167 18.2081 47.2817 18.0723 47.0808 17.894C46.8799 17.7157 46.7173 17.4986 46.6029 17.2557C46.4884 17.0128 46.4244 16.7493 46.4148 16.481C46.4148 15.3269 47.2468 14.705 48.3303 14.5495ZM50.4194 15.5661V15.279L48.7673 15.5242C48.5428 15.5319 48.3298 15.6256 48.1727 15.786C48.0155 15.9463 47.9262 16.1609 47.9232 16.3853C47.9252 16.5012 47.9511 16.6153 47.9995 16.7206C48.0478 16.826 48.1175 16.9201 48.2042 16.9971C48.2908 17.0741 48.3925 17.1323 48.5028 17.168C48.6132 17.2037 48.7297 17.2162 48.8451 17.2046C49.0631 17.2268 49.2833 17.1991 49.489 17.1236C49.6947 17.0481 49.8804 16.9267 50.0322 16.7688C50.1839 16.6109 50.2976 16.4205 50.3647 16.2121C50.4318 16.0037 50.4505 15.7828 50.4194 15.5661Z" fill="white"/>
<path d="M54.4659 8.63533C54.5966 8.63374 54.7263 8.6581 54.8475 8.70697C54.9687 8.75585 55.079 8.82828 55.172 8.92006C55.265 9.01184 55.3388 9.12114 55.3892 9.24164C55.4396 9.36214 55.4655 9.49143 55.4655 9.62201C55.4655 9.88211 55.3621 10.1316 55.178 10.3155C54.9939 10.4994 54.7442 10.6027 54.4838 10.6027C54.2235 10.6027 53.9738 10.4994 53.7897 10.3155C53.6056 10.1316 53.5021 9.88211 53.5021 9.62201C53.502 9.36442 53.6028 9.11701 53.7829 8.93264C53.963 8.74828 54.2081 8.64157 54.4659 8.63533ZM53.7296 18.2032V11.8465H55.2201V18.1733L53.7296 18.2032Z" fill="white"/>
<path d="M58.6799 18.1733H57.1715V11.8465H58.644V12.6897C58.8351 12.366 59.1099 12.0997 59.4396 11.9187C59.7693 11.7378 60.1417 11.6488 60.5176 11.6612C62.062 11.6612 62.8042 12.7794 62.8042 14.1727V18.1733H61.2958V14.4299C61.2958 13.6525 60.9426 13.0246 59.9968 13.0246C59.8086 13.0257 59.6227 13.0666 59.4514 13.1446C59.2801 13.2226 59.1273 13.3359 59.0029 13.4771C58.8785 13.6183 58.7854 13.7842 58.7298 13.9638C58.6741 14.1435 58.6571 14.3329 58.6799 14.5196V18.1733Z" fill="white"/>
<path d="M64.6419 18.1733V8.76691H66.1504V18.1733H64.6419Z" fill="white"/>
<path d="M68.844 8.63531C69.106 8.63531 69.3572 8.73927 69.5424 8.92431C69.7276 9.10935 69.8317 9.36031 69.8317 9.622C69.8305 9.81545 69.7721 10.0042 69.6638 10.1646C69.5554 10.3249 69.4021 10.4497 69.2229 10.5232C69.0438 10.5967 68.8469 10.6156 68.657 10.5776C68.4672 10.5395 68.2928 10.4463 68.1559 10.3095C68.0189 10.1727 67.9256 9.99848 67.8875 9.8088C67.8494 9.61912 67.8684 9.42243 67.9419 9.24348C68.0155 9.06452 68.1404 8.9113 68.3009 8.80308C68.4614 8.69487 68.6504 8.6365 68.844 8.63531ZM68.1018 18.2032V11.8465H69.5982V18.1733L68.1018 18.2032Z" fill="white"/>
<path d="M73.0581 18.1733H71.5497V11.8466H73.0162V12.6897C73.2083 12.3669 73.4833 12.1013 73.8127 11.9205C74.1422 11.7396 74.514 11.6501 74.8898 11.6612C76.4401 11.6612 77.1824 12.7794 77.1824 14.1728V18.1733H75.6739V14.4299C75.7014 14.2478 75.6875 14.0619 75.6332 13.8859C75.5789 13.7099 75.4856 13.5484 75.3602 13.4134C75.2348 13.2784 75.0806 13.1733 74.909 13.106C74.7374 13.0387 74.5529 13.0109 74.369 13.0246C74.181 13.0257 73.9953 13.0666 73.8243 13.1446C73.6532 13.2227 73.5007 13.3361 73.3768 13.4774C73.2529 13.6187 73.1604 13.7847 73.1055 13.9643C73.0505 14.144 73.0344 14.3332 73.0581 14.5196V18.1733Z" fill="white"/>
<path d="M82.3422 14.5196L85 18.1733H83.1503L81.2887 15.5661L80.5106 16.3853V18.1793H79.0141V8.76691H80.5106V14.406L82.9408 11.8466H84.9461L82.3422 14.5196Z" fill="white"/>
<path d="M11.3074 6.22545L17.832 9.96887V17.4856L11.3254 21.253L4.8007 17.5155V9.99877L11.3074 6.22545ZM11.3074 0.700012L8.91303 2.08735L2.39437 5.86068L0 7.24801V10.0107V17.5215V20.2842L2.39437 21.6596L8.91901 25.403L11.3134 26.7784L13.7077 25.3911L20.2144 21.6177L22.6088 20.2364V17.4737V9.95691V7.1942L20.2144 5.81882L13.6898 2.07539L11.2954 0.700012H11.3074Z" fill="white"/>
</g>
<defs>
<clipPath id="clip0">
<rect width="85" height="28" fill="white"/>
</clipPath>
</defs>
</svg>

<svg xmlns="http://www.w3.org/2000/svg" width="85" height="28" fill="none" xmlns:v="https://vecta.io/nano"><g clip-path="url(#A)" fill="#fff"><path d="M29.181 13.575c-.023-.622.081-1.242.304-1.822s.562-1.11.995-1.557a4.62 4.62 0 0 1 1.526-1.043c.573-.241 1.191-.364 1.814-.361 2.346 0 3.735 1.375 4.154 2.99l-1.473.496a2.56 2.56 0 0 0-.965-1.507 2.57 2.57 0 0 0-1.717-.508c-1.52 0-3.041 1.106-3.041 3.343s1.485 3.301 3.059 3.301a2.76 2.76 0 0 0 1.722-.54c.497-.368.856-.892 1.02-1.487l1.431.466c-.245.91-.794 1.709-1.556 2.263a4.14 4.14 0 0 1-2.634.786c-.628.012-1.252-.106-1.833-.347a4.56 4.56 0 0 1-2.531-2.63c-.218-.589-.311-1.216-.275-1.843zm11.667 4.598h-1.509V8.767h1.509v3.69a2.25 2.25 0 0 1 .806-.604c.311-.138.649-.203.989-.192 1.562 0 2.316 1.118 2.316 2.512v4.001h-1.467V14.43a1.21 1.21 0 0 0-.041-.544 1.25 1.25 0 0 0-.273-.473 1.21 1.21 0 0 0-.451-.307 1.23 1.23 0 0 0-.54-.081 1.32 1.32 0 0 0-.53.112 1.31 1.31 0 0 0-.44.315c-.123.134-.217.293-.276.465s-.081.355-.065.537l-.03 3.72zm7.482-3.623l1.622-.251c.365-.048.467-.233.467-.454 0-.532-.359-.963-1.197-.963a1.2 1.2 0 0 0-.896.296 1.19 1.19 0 0 0-.289.385c-.069.147-.108.306-.114.467l-1.377-.311c.114-1.094 1.107-2.069 2.664-2.069 1.951 0 2.694 1.106 2.694 2.392v3.139a5.87 5.87 0 0 0 .078 1.017h-1.407a3.9 3.9 0 0 1-.06-.807 2.21 2.21 0 0 1-1.952.999 1.99 1.99 0 0 1-1.483-.495 1.97 1.97 0 0 1-.478-.638 2 2 0 0 1-.188-.775c0-1.154.832-1.776 1.916-1.932zm2.089 1.017v-.287l-1.652.245c-.224.008-.437.101-.595.262a.87.87 0 0 0-.249.599.84.84 0 0 0 .076.335.82.82 0 0 0 .205.276.84.84 0 0 0 .641.207 1.44 1.44 0 0 0 .644-.081c.206-.076.391-.197.543-.355a1.44 1.44 0 0 0 .387-1.203zm4.047-6.932a.99.99 0 0 1 .706.285.98.98 0 0 1 .217.322c.05.121.076.25.076.38a.98.98 0 1 1-1.964 0c0-.258.101-.505.281-.689a.99.99 0 0 1 .683-.297zm-.736 9.568v-6.357h1.491v6.327l-1.491.03zm4.95-.03h-1.508v-6.327h1.472v.843a2.09 2.09 0 0 1 .796-.771 2.1 2.1 0 0 1 1.078-.258c1.544 0 2.287 1.118 2.287 2.512v4.001h-1.508V14.43c0-.777-.353-1.405-1.299-1.405a1.33 1.33 0 0 0-.545.12c-.171.078-.324.191-.449.332a1.33 1.33 0 0 0-.323 1.043v3.654zm5.962 0V8.767h1.508v9.406h-1.508zm4.202-9.538a.99.99 0 0 1 .698.289c.185.185.289.436.289.698a.98.98 0 0 1-1.175.955.98.98 0 0 1-.356-1.775.98.98 0 0 1 .543-.168zm-.742 9.568v-6.357h1.496v6.327l-1.496.03zm4.956-.03H71.55v-6.327h1.466v.843a2.1 2.1 0 0 1 .797-.769 2.11 2.11 0 0 1 1.077-.259c1.55 0 2.293 1.118 2.293 2.512v4.001h-1.508V14.43a1.21 1.21 0 0 0-.041-.544 1.25 1.25 0 0 0-.273-.473 1.23 1.23 0 0 0-.991-.389 1.33 1.33 0 0 0-.992.453 1.32 1.32 0 0 0-.318 1.042v3.654zm9.284-3.653L85 18.173h-1.85l-1.862-2.607-.778.819v1.794h-1.496V8.767h1.496v5.639l2.43-2.559h2.005l-2.604 2.673zM11.307 6.225l6.525 3.743v7.517l-6.507 3.767L4.8 17.514V9.999l6.507-3.773zm0-5.525L8.913 2.087 2.394 5.861 0 7.248v2.763 7.511 2.763l2.394 1.375 6.525 3.743 2.394 1.375 2.394-1.387 6.507-3.773 2.394-1.381v-2.763-7.517-2.763l-2.394-1.375-6.525-3.743L11.295.7h.012z"/></g><defs><clipPath id="A"><path fill="#fff" d="M0 0h85v28H0z"/></clipPath></defs></svg>
